svgs/thin/shelves.svg

<svg xmlns="http://www.w3.org/2000/svg" viewBox="0 0 640 512"><!--! Font Awesome Pro 6.0.0-alpha3 by @fontawesome - https://fontawesome.com License - https://fontawesome.com/license (Commercial License) --><path d="M600 0c-4.422 0-8 3.594-8 8V176h-544V8C48 3.594 44.42 0 40 0S32 3.594 32 8v496C32 508.4 35.58 512 40 512s8-3.594 8-8V448h544v56c0 4.406 3.578 8 8 8S608 508.4 608 504V8C608 3.594 604.4 0 600 0zM592 432h-544V192h544V432zM384 128h64c17.67 0 32-14.33 32-32V32c0-17.67-14.33-32-32-32h-64c-17.67 0-32 14.33-32 32v64C352 113.7 366.3 128 384 128zM368 32c0-8.824 7.178-16 16-16h64c8.822 0 16 7.176 16 16v64c0 8.824-7.178 16-16 16h-64c-8.822 0-16-7.176-16-16V32zM128 384h64c17.67 0 32-14.33 32-32V288c0-17.67-14.33-32-32-32H128C110.3 256 96 270.3 96 288v64C96 369.7 110.3 384 128 384zM112 288c0-8.824 7.178-16 16-16h64c8.822 0 16 7.176 16 16v64c0 8.824-7.178 16-16 16H128c-8.822 0-16-7.176-16-16V288zM288 384h64c17.67 0 32-14.33 32-32V288c0-17.67-14.33-32-32-32H288C270.3 256 256 270.3 256 288v64C256 369.7 270.3 384 288 384zM272 288c0-8.824 7.178-16 16-16h64c8.822 0 16 7.176 16 16v64c0 8.824-7.178 16-16 16H288c-8.822 0-16-7.176-16-16V288z"/></svg>

<svg xmlns="http://www.w3.org/2000/svg" viewBox="0 0 640 512"><!-- Font Awesome Pro 6.0.0-alpha2 by @fontawesome - https://fontawesome.com License - https://fontawesome.com/license (Commercial License) --><path d="M600 0C595.578 0 592 3.594 592 8V176H48V8C48 3.594 44.422 0 40 0S32 3.594 32 8V504C32 508.406 35.578 512 40 512S48 508.406 48 504V448H592V504C592 508.406 595.578 512 600 512S608 508.406 608 504V8C608 3.594 604.422 0 600 0ZM592 432H48V192H592V432ZM384 128H448C465.674 128 480 113.672 480 96V32C480 14.328 465.674 0 448 0H384C366.326 0 352 14.328 352 32V96C352 113.672 366.326 128 384 128ZM368 32C368 23.176 375.178 16 384 16H448C456.822 16 464 23.176 464 32V96C464 104.824 456.822 112 448 112H384C375.178 112 368 104.824 368 96V32ZM128 384H192C209.674 384 224 369.672 224 352V288C224 270.328 209.674 256 192 256H128C110.326 256 96 270.328 96 288V352C96 369.672 110.326 384 128 384ZM112 288C112 279.176 119.178 272 128 272H192C200.822 272 208 279.176 208 288V352C208 360.824 200.822 368 192 368H128C119.178 368 112 360.824 112 352V288ZM288 384H352C369.674 384 384 369.672 384 352V288C384 270.328 369.674 256 352 256H288C270.326 256 256 270.328 256 288V352C256 369.672 270.326 384 288 384ZM272 288C272 279.176 279.178 272 288 272H352C360.822 272 368 279.176 368 288V352C368 360.824 360.822 368 352 368H288C279.178 368 272 360.824 272 352V288Z"/></svg>
